X: 6935
T: Cherry Blossom, The
R: jig
M: 6/8
K: Gmajor
D|:GBA F/G/AF|GBd gdB|c/d/cA BAG|EAG FED|
GBA F/G/AF|GBd gdB|c/d/cA B/c/dB|1 GAG G2D:|2 GAG Gde||
|:gbg f/g/af|gba gdB|cBc ABc|def g/a/ga|
bag faf|def gdB|c/d/cA B/c/dB|1 GAG Gde:|2 GAG G2||

